X:1
T:French Suite I (A = 415 Hz)
T:BWV 812
T:J. S. Bach
%%score { ( 1 3 4 5 ) | ( 2 6 7 ) }
L:1/8
Q:1/4=96
M:4/4
K:F
V:1 treble nm="Harp"
V:3 treble 
V:4 treble 
V:5 treble 
V:2 bass 
V:6 bass 
V:7 bass 
V:1
"^Andante""^Allemande" d/ | d/A/B/G/ A/F/E/D/ z/ B/e/g/- g/g/f/e/ | %2
 g/f/e/d/ f2 !arpeggio!e>e a/e/f/^c/ | d2- d/f/e/g/ d/^c/=B/A/ =c2- | c<B- B2- B/=E/A- A>B | %5
 G2- G/F/E/F/ G/F/E/D/ c/4B/4c/4B/4c/4B/4B/ | B/G/A/c/ _e2- e>d z/ B/d/g/ | %7
 c2- c/B/A/B/ c/A/B/G/ e>e | e/a/f/^c/ d/4c/4dd/ g2- g/g/g/4f/4e/ | %9
 f/^c/d/f/ b>b b/a/4g/4f/4g/4e/ a2- | a/g/b/a/ g/f/e/d/ ^c>d e/f/g- | %11
 g/f/e/f/ e/4f/4g/4f/4g/4f/4e/ e2 z2 | z/ A/d/f/- f/f/e/d/ !arpeggio![^cea]3 z/ d/ | %13
 d/A/B/G/ A/F/E/D/ z/ B/e/g/- g/g/f/e/ | g/f/e/d/ f2 !arpeggio!e>e a/e/f/^c/ | %15
 d2- d/f/e/g/ d/^c/=B/A/ =c2- | c<B- B2- B/=E/A- A>B | G2- G/F/E/F/ G/F/E/D/ c/4B/4c/4B/4c/4B/4B/ | %18
 B/G/A/c/ _e2- e>d z/ B/d/g/ | c2- c/B/A/B/ c/A/B/G/ e>e | e/a/f/^c/ d/4c/4dd/ g2- g/g/g/4f/4e/ | %21
 f/^c/d/f/ b>b b/a/4g/4f/4g/4e/ a2- | a/g/b/a/ g/f/e/d/ ^c>d e/f/g- | %23
 g/f/e/f/ e/4f/4g/4f/4g/4f/4e/ e2 z2 | z/ A/d/f/- f/f/e/d/ !arpeggio![^cea]3 z/ e/ | %25
 e/a/g/e/ f/d/^c/=B/ c4- | c/e/d/B/ G/B/A/G/ F/^C/D/F/ B>B | B/G/A/c/ _e2- e/c/d/^f/ g>g | %28
 g/d/_e/=B/ c2- c2 z/ ^F/A/e/ | d/c/4B/4A/4B/4G/- G/^F/A/c/ B/A/G/A/ B>B | %30
 B/g/e/c/ B3/2A/4B/4 A>=B ^c/d/e/f/ | g/a/4b/4a/4b/4g/ f/g/4f/4e/4f/4d/ ^c=B/A/ e/4d/e3/4e/ | %32
 e/^c/d/f/ g2 g>g f2- | f/B/_e e/c/d/e/ d>d- d/G/c- | c2- c/_e/d/c/ B2 z/ G/A/B/ | %35
 z/ E/A- A/=B/^c/d/ e/f/4g/4f/4g/4e/ f/4e/4f/4e/4f/4e/4d/ | d2- d>^c d>A- [Ad]3/2 e/ | %37
 e/a/g/e/ f/d/^c/=B/ c4- | c/e/d/B/ G/B/A/G/ F/^C/D/F/ B>B | B/G/A/c/ _e2- e/c/d/^f/ g>g | %40
 g/d/_e/=B/ c2- c2 z/ ^F/A/e/ | d/c/4B/4A/4B/4G/- G/^F/A/c/ B/A/G/A/ B>B | %42
 B/g/e/c/ B3/2A/4B/4 A>=B ^c/d/e/f/ | g/a/4b/4a/4b/4g/ f/g/4f/4e/4f/4d/ ^c=B/A/ e/4d/e3/4e/ | %44
 e/^c/d/f/ g2 g>g f2- | f/B/_e e/c/d/e/ d>d- d/G/c- | c2- c/_e/d/c/ B2 z/ G/A/B/ | %47
 z/ E/A- A/=B/^c/d/ e/f/4g/4f/4g/4e/ f/4e/4f/4e/4f/4e/4d/ | d2- d>^c d>A- !fermata![Ad]3/2 z/ | %49
[M:6/4][Q:1/4=40][Q:1/4=180]"^Courante" z8 z2 z A | A3 GFE FD B3 B | A6 A2 d^cde | %52
 ^c2 =BAgf gaf/4e/4f/- f2 e | e6 e2 acdA | cBAG B3 c A3 B | c3 BAG AF _e3 f | %56
 d6 !arpeggio!d2 edef | B3 c A3 G G3 F | F3 EFG EG G3 A | A4 AE A4 z A | A3 GFE FD B3 B | %61
 A6 A2 d^cde | ^c2 =BAgf gaf/4e/4f/- f2 e | e6 e2 acdA | cBAG B3 c A3 B | c3 BAG AF _e3 f | %66
 d6 !arpeggio!d2 edef | B3 c A3 G G3 F | F3 EFG EG G3 A | A4 AE A4 z A | A3 =B^cd ce G3 A | %71
 GFED A3 B/c/ ^F3 F | G3 ABc d_e f3 g | _e2 dc !arpeggio!d3 G ^F3 G | z ^FAc B3 A A3 G | %75
 G4- G2 GA/B/ B3 B | B6 AB/c/ c3 c | c2 =B2- BB ^cdefeg | BGAgf^c dbagfe | d^c=BA a3 =cc_BcA | %80
 cBAG g3 fed^cd | d^c=BA !arpeggio!_B3 =cBABG | z ^ceg f3 e e3 d | d4 dA- [Ad]4 z A | %84
 A3 =B^cd ce G3 A | GFED A3 B/c/ ^F3 F | G3 ABc d_e f3 g | _e2 dc !arpeggio!d3 G ^F3 G | %88
 z ^FAc B3 A A3 G | G4- G2 GA/B/ B3 B | B6 AB/c/ c3 c | c2 =B2- BB ^cdefeg | BGAgf^c dbagfe | %93
 d^c=BA a3 =cc_BcA | cBAG g3 fed^cd | d^c=BA !arpeggio!_B3 =cBABG | z ^ceg f3 e e3 d | %97
 d4 dA- !fermata![Ad]4 z z |[M:3/4] z6 |"^Sarabande"[Q:1/4=100] A2 BA ^cd | GA B4- | BA Ge AG | %102
 ^FG A4- | Ad BA G^F | GB AG FE | DF BG _e^c | _a=a ^c4 | A2 BA ^cd | GA B4- | BA Ge AG | ^FG A4- | %111
 Ad BA G^F | GB AG FE | DF BG _e^c | _a=a ^c4 | e2 e2 f2 | ^c2 c4 | c2 cB _e2- | ed c^f ga | %119
 b2 b2 b2 | ba c'b ag | ^fg ba gf | g2 g4 | e2 fe ga | ef f4- | fe d=b ed | ^cd e4- | ea fe dc | %128
 Bg ^cB AG | FB _A=A fe | ^cd d4 | e2 e2 f2 | ^c2 c4 | c2 cB _e2- | ed c^f ga | b2 b2 b2 | %136
 ba c'b ag | ^fg ba gf | g2 g4 | e2 fe ga | ef f4- | fe d=b ed | ^cd e4- | ea fe dc | Bg ^cB AG | %145
 FB _A=A fe | ^cd !fermata!d4 |[M:3/4] z6 |"^Menuet I"[Q:1/4=135] df be fa | Bd g^c df | %150
 G2 A/4G/4A/4G/4A/4G/4A/4G/4 A/4G/4A/4G/4 F/G/ | A6- | Af ed ea | da _a^f a=b | ae dc =Bc | A4 z2 | %156
 df be fa | Bd g^c df | G2 A/4G/4A/4G/4A/4G/4A/4G/4 A/4G/4A/4G/4 F/G/ | A6- | Af ed ea | %161
 da _a^f a=b | ae dc =Bc | A6 | A2 c/4B/4c/4B/4c/4B/4c/4B/4 c2 | B2 AG A2- | AG FE FG | FE DE C2 | %168
 F6- | F6- | F2 G2 E2 | FE FG AB | c_e dc dB | Gf ed ec | Ag fe fd | ed ^c=B cA | d6- | d6- | %178
 d2 fe d^c | d6 | A2 c/4B/4c/4B/4c/4B/4c/4B/4 c2 | B2 AG A2- | AG FE FG | FE DE C2 | F6- | F6- | %186
 F2 G2 E2 | FE FG AB | c_e dc dB | Gf ed ec | Ag fe fd | ed ^c=B cA | d6- | d6- | d2 fe d^c | %195
 !fermata!d6 |"^Menuet II" A2 A3 G/A/ | Bc dB cA | GA/4G/4A/4G/4 A/4G/4A/4B/4 c2 B | AG BA GF | %200
 d6- | d6- | dd ^c=B AG | FE GF ED | A2 A3 G/A/ | Bc dB cA | G2 G3 F/G/ | AB cA BG | F2 F3 E/F/ | %209
 GA BA BG | A2 GF EF | D6 | A2 A3 G/A/ | Bc dB cA | GA/4G/4A/4G/4 A/4G/4A/4B/4 c2 B | AG BA GF | %216
 d6- | d6- | dd ^c=B AG | FE GF ED | A2 A3 G/A/ | Bc dB cA | G2 G3 F/G/ | AB cA BG | F2 F3 E/F/ | %225
 GA BA BG | A2 GF EF | D6 | AG FG AB | cG AB cB | c_e dc BA | BA cB AG | %232
 c2 d/4^c/4d/4c/4d/4c/4d/4c/4 d/4c/4d/4c/4 =B/c/ | d2 e/4d/4e/4d/4e/4d/4e/4d/4 e/4d/4e/4d/4 ^c/d/ | %234
 ef ge fd | e2 d^c =BA | A2 A3 G/A/ | Bc dB cA | G2 A/4B/4A/4G/4A/4B/4 c3/2B | AG BA GF | d6- | %241
 d6- | dd ^c=B AG | FE GF ED | A2 A3 G/A/ | Bc dB cA | G2 G3 F/G/ | AB cA BG | F2 F3 E/F/ | %249
 GA BA BG | A2 GF EF | D6 | AG FG AB | cG AB cB | c_e dc BA | BA cB AG | %256
 c2 d/4^c/4d/4c/4d/4c/4d/4c/4 d/4c/4d/4c/4 =B/c/ | d2 e/4d/4e/4d/4e/4d/4e/4d/4 e/4d/4e/4d/4 ^c/d/ | %258
 ef ge fd | e2 d^c =BA | A2 A3 G/A/ | Bc dB cA | G2 A/4B/4A/4G/4A/4B/4 c3/2B | AG BA GF | d6- | %265
 d6- | dd ^c=B AG | FE GF ED | A2 A3 G/A/ | Bc dB cA | G2 G3 F/G/ | AB cA BG | F2 F3 E/F/ | %273
 GA BA BG | A2 GF EF | D6 |[M:2/2] z8 |"^Gigue"[Q:1/8=200] z z/ A/ d>A B-B/4A/4G/4F/4 E>G | %278
 z z/ d/ a>e f-f/4e/4d/4c/4 =B>d | ^c3/2 d/4e/4 f>g e4- | e>A d>A B-B/4A/4G/4F/4 E>G | %281
 F3/2E/4D/4 B2- B3/2A/4G/4 A>B | G>G c2- c3/2B/4A/4 [BB]>c | A>A d2- d3/2c/4=B/4 [cc]>d | %284
 e4- e>A d>d | d-d/4c/4=B/4c/4 c>B B4- | B>e a>e f-f/4e/4d/4c/4 =B>d | %287
 _A3/2^F/4E/4 c>c c-c/4d/4c/4=B/4 B>=A | A8 | z z/ A/ d>A B-B/4A/4G/4F/4 E>G | %290
 z z/ d/ a>e f-f/4e/4d/4c/4 =B>d | ^c3/2 d/4e/4 f>g e4- | e>A d>A B-B/4A/4G/4F/4 E>G | %293
 F3/2E/4D/4 B2- B3/2A/4G/4 A>B | G>G c2- c3/2B/4A/4 [BB]>c | A>A d2- d3/2c/4=B/4 [cc]>d | %296
 e4- e>A d>d | d-d/4c/4=B/4c/4 c>B B4- | B>e a>e f-f/4e/4d/4c/4 =B>d | %299
 _A3/2^F/4E/4 c>c c-c/4d/4c/4=B/4 B>=A | A8 | z z/ E/ A,>D ^C-C/4D/4E/4F/4 G>E | %302
 F2- FF/4E/4F/4G/4 A2- A-A/4^F/4G/4A/4 | z z/ d/ G>d ^c-c/4d/4e/4f/4 g>e | f4 e4- | %305
 e>e A>e f3 z/ e/ | d>d G>d e3 z/ d/ | c-c/4c/4d/4e/4 f-f/4e/4f/4d/4 =b4- | %308
 b3/2a/4_a/4 =a2- a3/2g/4f/4 g2- | g>a f2- f-f/4f/4e/4f/4 g/4f/4e/f/4e/4d/ | ^c4 z z/ A/ d>A | %311
 B-B/4A/4G/4F/4 E>G F>d G>d | ^c-c/4d/4e/4f/4 g>e ^f-f/4g/4a/4b/4 c'>a | b2 b>a g2 f2- | %314
 f/e/d/^c/ d/e/f/g/4a/4 b-b/4a/4g/4f/4 e/f/g/e/ | ^c3/2=B/4A/4 f>f f-f/4g/4f/4e/4 e>d | d8 | %317
 z z/ E/ A,>D ^C-C/4D/4E/4F/4 G>E | F2- FF/4E/4F/4G/4 A2- A-A/4^F/4G/4A/4 | %319
 z z/ d/ G>d ^c-c/4d/4e/4f/4 g>e | f4 e4- | e>e A>e f3 z/ e/ | d>d G>d e3 z/ d/ | %323
 c-c/4c/4d/4e/4 f-f/4e/4f/4d/4 =b4- | b3/2a/4_a/4 =a2- a3/2g/4f/4 g2- | %325
 g>a f2- f-f/4f/4e/4f/4 g/4f/4e/f/4e/4d/ | ^c4 z z/ A/ d>A | B-B/4A/4G/4F/4 E>G F>d G>d | %328
 ^c-c/4d/4e/4f/4 g>e ^f-f/4g/4a/4b/4 c'>a | b2 b>a g2 f2- | %330
 f/e/d/^c/ d/e/f/g/4a/4 b-b/4a/4g/4f/4 e/f/g/e/ | ^c3/2=B/4A/4 f>f f-f/4g/4f/4e/4 e>d | %332
 !fermata!d8 |] %333
V:2
 z/ | D,8- | D,A, D/4C/4D3/2- D/D/C/B,/ [CE]A, | B,A, B,G, A,G, ^F,D, | %4
 G,G,, G,/4F,/4G,3/2 G,3/2 F,/4E,/4 F,2- | F,3/2G,/4F,/4 E,/A,/G,/A,/ D,2 z/ D/4^C/4D/4C/4B,/ | %6
 CB,A,F, B,/4A,/4B,/B,, B,/4A,/B,3/4B,/ | B,3/2C/4B,/4 A,/D/C/D/ G,2 z/ ^C/D/E/ | %8
 F,F- F/F/4E/4F/4E/4D/ E/4D/4E/G, A,A,, | D,2- D,/E,/F,/G,/ C,2- C,/D,/E,/F,/ | %10
 B,,2 B,2- B,/A,/B,/A,/ G,/F,/E,/D,/ | z A,/4G,/4A,3/2 _A, =A,4- | A,4- A,3 z/ z/ | D,8- | %14
 D,A, D/4C/4D3/2- D/D/C/B,/ [CE]A, | B,A, B,G, A,G, ^F,D, | %16
 G,G,, G,/4F,/4G,3/2 G,3/2 F,/4E,/4 F,2- | F,3/2G,/4F,/4 E,/A,/G,/A,/ D,2 z/ D/4^C/4D/4C/4B,/ | %18
 CB,A,F, B,/4A,/4B,/B,, B,/4A,/B,3/4B,/ | B,3/2C/4B,/4 A,/D/C/D/ G,2 z/ ^C/D/E/ | %20
 F,F- F/F/4E/4F/4E/4D/ E/4D/4E/G, A,A,, | D,2- D,/E,/F,/G,/ C,2- C,/D,/E,/F,/ | %22
 B,,2 B,2- B,/A,/B,/A,/ G,/F,/E,/D,/ | z A,/4G,/4A,3/2 _A, =A,4- | A,4- A,3 z/ z/ | z ^CDF E2 E2 | %26
 z A, B,/G,/^C z F,- F,/G,/A,/B,/ | C>B, A,F, B,2- B,/G,/A,/B,/ | z G, A,2 z/ C/D/A,/ B,2- | %29
 B,C D2 D/C/B,/A,/ G,/F,/E,/D,/ | z2 C2- C/-C/B,/A,/ G,/F,/E,/D,/ | %31
 ^C,A,,D,G,, A,,A,- A,/G,/F,/E,/ | z A,=B,^C D4- | DC/B,/ CF, B,2- B,>B, | %34
 A,/G,/^F,/E,/ D,/C,/B,,/A,,/ G,,2 G,>G, | G,/F,/E,/D,/ ^C,/=B,,/A,,/G,,/ z/ A,,/D, D,C, | %36
 D,6- D,3/2 z/ | z ^CDF E2 E2 | z A, B,/G,/^C z F,- F,/G,/A,/B,/ | C>B, A,F, B,2- B,/G,/A,/B,/ | %40
 z G, A,2 z/ C/D/A,/ B,2- | B,C D2 D/C/B,/A,/ G,/F,/E,/D,/ | z2 C2- C/-C/B,/A,/ G,/F,/E,/D,/ | %43
 ^C,A,,D,G,, A,,A,- A,/G,/F,/E,/ | z A,=B,^C D4- | DC/B,/ CF, B,2- B,>B, | %46
 A,/G,/^F,/E,/ D,/C,/B,,/A,,/ G,,2 G,>G, | G,/F,/E,/D,/ ^C,/=B,,/A,,/G,,/ z/ A,,/D, D,C, | %48
 D,6- D,3/2 z/ |[M:6/4] z8 z2 z z | z2 F,2 A,4- A,2 G,2 | A,3 G,F,E, F,D,D/4C/4D/ D2- D | %52
 E2 D2- D2 ^C2 D2 DE | D^C=B,A,G,^F, G,A,F,/E,/ F,2 G, | G,3 F,E,D, E,C,F,D,C,B,, | z C,D,E, F,8- | %56
 F,3 _E,D,C,[I:staff -1] !arpeggio!F2 G3[I:staff +1] A, | G,D,E,C,F,C, D,=B,,D,^C,B,,A,, | %58
 z E,F,G, A,4 B,4 | E,6- E,4 z z | z2 F,2 A,4- A,2 G,2 | A,3 G,F,E, F,D,D/4C/4D/ D2- D | %62
 E2 D2- D2 ^C2 D2 DE | D^C=B,A,G,^F, G,A,F,/E,/ F,2 G, | G,3 F,E,D, E,C,F,D,C,B,, | z C,D,E, F,8- | %66
 F,3 _E,D,C,[I:staff -1] !arpeggio!F2 G3[I:staff +1] A, | G,D,E,C,F,C, D,=B,,D,^C,B,,A,, | %68
 z E,F,G, A,4 B,4 | E,6- E,4 z z | z E,F,G, A,4- A,4- | A,4 F,G, F,A, z A, D,2 | %72
 z D,E,^F,G,_E, =F,D,C,B,,A,,G,, | C,4- C,A,, B,,D,_E,C,A,B, | ^F,2 D,2 G,2 C,2 D,2 D,,2 | %75
 G,,4 z4 z G,,A,,B,, | z G,A,B,CD C_EG,^F,E,D, | G,3 A,G,F, G,E, _B,3 B, | z2 E,2 z2 F,2 z2 G,2 | %79
 A,3 G,^F,E, F,D, D4- | D3 F,E,D, ^C,D, G,,2 B,,2 | A,,3 B,,A,,G,, A,,F,, G,,2 G,2- | %82
 G,E,^C,A,, D,2 G,2 A,2 A,,2 | z2 ^F,2 A,2 D,,4 z z | z E,F,G, A,4- A,4- | A,4 F,G, F,A, z A, D,2 | %86
 z D,E,^F,G,_E, =F,D,C,B,,A,,G,, | C,4- C,A,, B,,D,_E,C,A,B, | ^F,2 D,2 G,2 C,2 D,2 D,,2 | %89
 G,,4 z4 z G,,A,,B,, | z G,A,B,CD C_EG,^F,E,D, | G,3 A,G,F, G,E, _B,3 B, | z2 E,2 z2 F,2 z2 G,2 | %93
 A,3 G,^F,E, F,D, D4- | D3 F,E,D, ^C,D, G,,2 B,,2 | A,,3 B,,A,,G,, A,,F,, G,,2 G,2- | %96
 G,E,^C,A,, D,2 G,2 A,2 A,,2 | z2 ^F,2 A,2 !fermata!D,,4 z z |[M:3/4] z6 | D2 D2 D2 | B,A, G,4- | %101
 G,E, A,2 A,2 | A,G, ^F,4- | F,2 G,2 G,2 | A,2 E,2 A,G, | F,2 G,2 G,E, | F,D, E,4 | D2 D2 D2 | %108
 B,A, G,4- | G,E, A,2 A,2 | A,G, ^F,4- | F,2 G,2 G,2 | A,2 E,2 A,G, | F,2 G,2 G,E, | F,D, E,4 | %115
 A,,2 B,,A,, ^C,D, | G,,A,, B,,4- | B,,A,, G,,_E, A,,G,, | ^F,,G,, A,,4- | A,,D, B,,A,, G,,F,, | %120
 _E,,2 z B,, C,D, | _E,2 D,2 D,,2 | G,,D, _E,D, ^F,G, |[I:staff -1] G2[I:staff +1] G2 G2- | %124
 GF[I:staff -1] A4 |[I:staff +1] D=B, E2 E2- | ED ^C4 | F2 D2 D2 | D2 E2 A,2 | %129
 A,G,[I:staff -1] D2[I:staff +1] ^CE | B,2 A,4 | A,,2 B,,A,, ^C,D, | G,,A,, B,,4- | %133
 B,,A,, G,,_E, A,,G,, | ^F,,G,, A,,4- | A,,D, B,,A,, G,,F,, | _E,,2 z B,, C,D, | _E,2 D,2 D,,2 | %138
 G,,D, _E,D, ^F,G, |[I:staff -1] G2[I:staff +1] G2 G2- | GF[I:staff -1] A4 | %141
[I:staff +1] D=B, E2 E2- | ED ^C4 | F2 D2 D2 | D2 E2 A,2 | A,G,[I:staff -1] D2[I:staff +1] ^CE | %146
 B,2 A,4 |[M:3/4] z6 | D6- | D6 | B,6 | A,4- A,G, | F,6- | F,2 E,2 D,2 | C,2 D,2 E,2 | %155
 A,,2 A,=B, ^CA, | D6- | D6 | B,6 | A,4- A,G, | F,6- | F,2 E,2 D,2 | C,2 D,2 E,2 | A,,6 | %164
 F,A, DG, A,C | D,F, B,E, F,A, | %166
 B,,2 C,/4=B,,/4C,/4B,,/4C,/4B,,/4C,/4B,,/4 C,/4B,,/4C,/4B,,/4 A,,/B,,/ | C,2 D,2 E,2 | %168
 _E,2 F,E, D,C, | D,2 C,B,, A,,G,, | A,,2 B,,2 C,2 | F,2 F,,2 G,,2 | A,,2 B,,3 G,, | %173
 C,=B,, C,2- C,A,, | D,^C, D,2 B,2- | B,2 A,G, F,E, | ^F,A, DG, A,C | D,G, B,E, F,A, | %178
 B,,2 G,,2 A,,2 | D,6 | F,A, DG, A,C | D,F, B,E, F,A, | %182
 B,,2 C,/4=B,,/4C,/4B,,/4C,/4B,,/4C,/4B,,/4 C,/4B,,/4C,/4B,,/4 A,,/B,,/ | C,2 D,2 E,2 | %184
 _E,2 F,E, D,C, | D,2 C,B,, A,,G,, | A,,2 B,,2 C,2 | F,2 F,,2 G,,2 | A,,2 B,,3 G,, | %189
 C,=B,, C,2- C,A,, | D,^C, D,2 B,2- | B,2 A,G, F,E, | ^F,A, DG, A,C | D,G, B,E, F,A, | %194
 B,,2 G,,2 A,,2 | D,6 | D,2 D2 C2 | B,2 A,G, A,B, | C2 C,B,, A,,G,, | F,,2 G,,2 A,,2 | %200
 B,,F, B,A, G,F, | E,^C, D,E, F,G, | A,2 A,,2 A,2 | D,2 F,,2 A,,2 | D,,A,, D,C, B,,A,, | %205
 G,,A,, B,,G,, A,,B,, | C,G, CB, A,G, | F,G, A,F, G,A, | B,C B,A, G,F, | E,F, G,F, G,E, | %210
 F,2 G,2 A,2 | D,2 A,,2 D,,2 | D,2 D2 C2 | B,2 A,G, A,B, | C2 C,B,, A,,G,, | F,,2 G,,2 A,,2 | %216
 B,,F, B,A, G,F, | E,^C, D,E, F,G, | A,2 A,,2 A,2 | D,2 F,,2 A,,2 | D,,A,, D,C, B,,A,, | %221
 G,,A,, B,,G,, A,,B,, | C,G, CB, A,G, | F,G, A,F, G,A, | B,C B,A, G,F, | E,F, G,F, G,E, | %226
 F,2 G,2 A,2 | D,2 A,,2 D,,2 | D,2 E,/4D,/4E,/4D,/4E,/4D,/4E,/4D,/4 E,/4D,/4E,/4D,/4 C,/D,/ | E,6 | %230
 ^F,2 G,/4F,/4G,/4F,/4G,/4F,/4G,/4F,/4 G,/4F,/4G,/4F,/4 E,/[F,F,]/ | G,2 D,2 G,,2 | %232
 G,F, G,B, A,G, | F,A, G,F, E,D, | ^C,2 A,,2 D,2 | A,,2 =B,,2 ^C,2 | D,2 D2 C2 | B,2 A,G, A,B, | %238
 C2 C,B,, A,,G,, | F,,2 G,,2 A,,2 | B,,F, B,A, G,F, | E,^C, D,E, F,G, | A,2 A,,2 A,2 | %243
 D,2 F,,2 A,,2 | D,,A,, D,C, B,,A,, | G,,A,, B,,G,, A,,B,, | C,G, CB, A,G, | F,G, A,F, G,A, | %248
 B,C B,A, G,F, | E,F, G,F, G,E, | F,2 G,2 A,2 | D,2 A,,2 D,,2 | %252
 D,2 E,/4D,/4E,/4D,/4E,/4D,/4E,/4D,/4 E,/4D,/4E,/4D,/4 C,/D,/ | E,6 | %254
 ^F,2 G,/4F,/4G,/4F,/4G,/4F,/4G,/4F,/4 G,/4F,/4G,/4F,/4 E,/[F,F,]/ | G,2 D,2 G,,2 | %256
 G,F, G,B, A,G, | F,A, G,F, E,D, | ^C,2 A,,2 D,2 | A,,2 =B,,2 ^C,2 | D,2 D2 C2 | B,2 A,G, A,B, | %262
 C2 C,B,, A,,G,, | F,,2 G,,2 A,,2 | B,,F, B,A, G,F, | E,^C, D,E, F,G, | A,2 A,,2 A,2 | %267
 D,2 F,,2 A,,2 | D,,A,, D,C, B,,A,, | G,,A,, B,,G,, A,,B,, | C,G, CB, A,G, | F,G, A,F, G,A, | %272
 B,C B,A, G,F, | E,F, G,F, G,E, | F,2 G,2 A,2 | D,2 A,,2 D,,2 |[M:2/2] z8 | z8 | z8 | %279
 z z/ A,<DA,/ B,-B,/4A,/4G,/4F,/4 F,/4 E,3/2G,/4 | F,2 z z/ ^F,/ G,>E, A,>A,, | %281
 D,>C, B,,3/2A,,/4G,,/4 C,2 z2 | z z/ C,/4B,,/4 A,,3/2B,,/4C,/4 D,,2 z2 | %283
 z z/ D,/4E,/4 F,3/2E,/4D,/4 E,2 z2 | z z/ =B,/ E>B, C-C/4B,/4A,/4G,/4 ^F,>A, | %285
 _A,2 =A,2- A,2 _A,3/2=A,/4=B,/4 | E,2- E,>C, D,4- | %287
 D,/D,/C,/=B,,/ A,,/G,,/F,,/E,,/ D,,>D, E,>E,, | z z/ ^C,/ D,>F, E,4 | z8 | z8 | %291
 z z/ A,<DA,/ B,-B,/4A,/4G,/4F,/4 F,/4 E,3/2G,/4 | F,2 z z/ ^F,/ G,>E, A,>A,, | %293
 D,>C, B,,3/2A,,/4G,,/4 C,2 z2 | z z/ C,/4B,,/4 A,,3/2B,,/4C,/4 D,,2 z2 | %295
 z z/ D,/4E,/4 F,3/2E,/4D,/4 E,2 z2 | z z/ =B,/ E>B, C-C/4B,/4A,/4G,/4 ^F,>A, | %297
 _A,2 =A,2- A,2 _A,3/2=A,/4=B,/4 | E,2- E,>C, D,4- | %299
 D,/D,/C,/=B,,/ A,,/G,,/F,,/E,,/ D,,>D, E,>E,, | z z/ ^C,/ D,>F, E,4 | z8 | %302
 z z/ A,/ D,>G, ^F,-F,/4G,/4A,/4B,/4 C>A, | B,2- B,-B,/4B,/4A,/4G,/4 A,4 | %304
 D,3/2D/4C/4 =B,3/2C/4D/4 D,-D,/4F,/4E,/4D,/4 A,/4_A,/4=A,/4_A,/4=A,/4_A,/4^F,/4E,/4 | %305
 A,3/2A,,/4=B,,/4 C,3/2B,,/4A,,/4 D,2 z2 | %306
 z z/ G,,/4A,,/4 =B,,3/2A,,/4G,,/4 C,2 C,-C,/4C,/4D,/4E,/4 | %307
 F,>A, D,>A, _A,-A,/4=A,/4=B,/4C/4 D>B, | C>=B, C>D E>F E>D | %309
 ^C-C/4A,/4=B,/4C/4 D-D/4D,/4E,/4F,/4 C,/4B,,/4C,/4B,,/4C,/4B,,/4C,/4B,,/4 C,/4B,,/4C,/4B,,/4C,/4B,,/4C,/4B,,/4 | %310
 A,,2 z2 z4 | z z/ E,/ A,>E, F,-F,/4E,/4D,/4C,/4 B,,>D, | %312
 G,,-G,,/4F,/4E,/4D,/4 D,/4^C,/4D,/4C,/4D,/4C,/4=B,,/4C,/4 D,-D,/4B,/4A,/4G,/4 ^F,3/2E,/4F,/4 | %313
 G,-G,/4A,/4G,/4F,/4 E,-E,/4F,/4E,/4D,/4 ^C,>A,, D,>D,, | G,, z z2 G, z z2 | %315
 z/ G,/F,/E,/ D,/C,/B,,/A,,/ G,,>G, A,>A,, | z z/ ^F,/ G,>B, A,4 | z8 | %318
 z z/ A,/ D,>G, ^F,-F,/4G,/4A,/4B,/4 C>A, | B,2- B,-B,/4B,/4A,/4G,/4 A,4 | %320
 D,3/2D/4C/4 =B,3/2C/4D/4 D,-D,/4F,/4E,/4D,/4 A,/4_A,/4=A,/4_A,/4=A,/4_A,/4^F,/4E,/4 | %321
 A,3/2A,,/4=B,,/4 C,3/2B,,/4A,,/4 D,2 z2 | %322
 z z/ G,,/4A,,/4 =B,,3/2A,,/4G,,/4 C,2 C,-C,/4C,/4D,/4E,/4 | %323
 F,>A, D,>A, _A,-A,/4=A,/4=B,/4C/4 D>B, | C>=B, C>D E>F E>D | %325
 ^C-C/4A,/4=B,/4C/4 D-D/4D,/4E,/4F,/4 C,/4B,,/4C,/4B,,/4C,/4B,,/4C,/4B,,/4 C,/4B,,/4C,/4B,,/4C,/4B,,/4C,/4B,,/4 | %326
 A,,2 z2 z4 | z z/ E,/ A,>E, F,-F,/4E,/4D,/4C,/4 B,,>D, | %328
 G,,-G,,/4F,/4E,/4D,/4 D,/4^C,/4D,/4C,/4D,/4C,/4=B,,/4C,/4 D,-D,/4B,/4A,/4G,/4 ^F,3/2E,/4F,/4 | %329
 G,-G,/4A,/4G,/4F,/4 E,-E,/4F,/4E,/4D,/4 ^C,>A,, D,>D,, | G,, z z2 G, z z2 | %331
 z/ G,/F,/E,/ D,/C,/B,,/A,,/ G,,>G, A,>A,, | z z/ ^F,/ G,>B, !fermata!A,4 |] %333
V:3
 x/ | z4 ^C4 | D z z2 !arpeggio!G3/2 z/ EA- | A/A/B/F/ G4 z/ G/A/^F/ | %4
 GD/F/ _E/G/^C/D/ C2 z/ A,/D | z/ D/E/=B,/ ^C2 z4 | z2 z/ c/A/F/- F2 G2 | z/ G/A/E/ ^F2 z4 | %8
 z4 z/ d/e/=B/ ^c2 | z6 z/ g/f/e/ | d3 z z2 z g/B/ | A3 d- d/=B/^c/A/ _B/G/F/E/ | %12
 F2 _A2 !arpeggio!=A3 z | z4 ^C4 | D z z2 !arpeggio!G3/2 z/ EA- | A/A/B/F/ G4 z/ G/A/^F/ | %16
 GD/F/ _E/G/^C/D/ C2 z/ A,/D | z/ D/E/=B,/ ^C2 z4 | z2 z/ c/A/F/- F2 G2 | z/ G/A/E/ ^F2 z4 | %20
 z4 z/ d/e/=B/ ^c2 | z6 z/ g/f/e/ | d3 z z2 z g/B/ | A3 d- d/=B/^c/A/ _B/G/F/E/ | %24
 F2 _A2 !arpeggio!=A3 x | z4 z/ A/_B/G/- G2 | z4 z D- D2 | _E2 z/ c/A/F/ z z/ C/ D2 | %28
 z2 z/ A/_B/G/ ^F2 z2 | x8 | x8 | x8 | z2 z/ A/B/G/ z/ A/^c/g/ z/ d/B/A/ | G>G A2 A/A/B E2- | %34
 E/B/A/G/ ^F2 z/ F/G/D/ _E2 | x8 | z/ B/c/A/ B/^F/G- G/E/F [DF]3/2 z/ | z4 z/ A/_B/G/- G2 | %38
 z4 z D- D2 | _E2 z/ c/A/F/ z z/ C/ D2 | z2 z/ A/_B/G/ ^F2 z2 | x8 | x8 | x8 | %44
 z2 z/ A/B/G/ z/ A/^c/g/ z/ d/B/A/ | G>G A2 A/A/B E2- | E/B/A/G/ ^F2 z/ F/G/D/ _E2 | x8 | %48
 z/ B/c/A/ B/^F/G- G/E/F [DF]3/2 z/ |[M:6/4] x12 | z8 z G3- | GEF/4E/4F3/2- F2 F2 G4 | %52
 A4 e4 d2 _A2 | A6 A2 A z z2 | z4 G4- G2 F2- | F4 z4 z c A2 | %56
 z AB/4A/4B3/2- B2 !arpeggio!B2 c3 A- | A2 G2- G2 F2- F2 E2- | E2 D^C D4- D4- | %59
 DDE=B, ^C2- C4 z z | z8 z G3- | GEF/4E/4F3/2- F2 F2 G4 | A4 e4 d2 _A2 | A6 A2 A z z2 | %64
 z4 G4- G2 F2- | F4 z4 z c A2 | z AB/4A/4B3/2- B2 !arpeggio!B2 c3 A- | A2 G2- G2 F2- F2 E2- | %68
 E2 D^C D4- D4- | DDE=B, ^C2- C4 z x | E3 z z4 E4 | D4 z4 D4- | D2 z6 d4 | c4 !arpeggio!A3 z z4 | %74
 D6 _E2 D2 C2- | C_EDC[I:staff +1]B,A, B,G,[I:staff -1]F=EFG | E6 z2 A4 | A2 G2 G z z2 z4 | x12 | %79
 x12 | x12 | z4 !arpeggio!D3 z _E2 z2 | A6 B2 A2 G2- | GGAE ^F2- F4 z z | E3 z z4 E4 | D4 z4 D4- | %86
 D2 z6 d4 | c4 !arpeggio!A3 z z4 | D6 _E2 D2 C2- | C_EDC[I:staff +1]B,A, B,G,[I:staff -1]F=EFG | %90
 E6 z2 A4 | A2 G2 G z z2 z4 | x12 | x12 | x12 | z4 !arpeggio!D3 z _E2 z2 | A6 B2 A2 G2- | %97
 GGAE ^F2- F4 x2 |[M:3/4] x6 | F2 G2 F2 | E2 E4- | E2 E2 E2 | D2 D4- | D2 D2 D2 | ^C2 C2 C2 | %105
 D2 z2 G2 | A2 A4 | F2 G2 F2 | E2 E4- | E2 E2 E2 | D2 D4- | D2 D2 D2 | ^C2 C2 C2 | D2 z2 G2 | %114
 A2 A4 | ^c2 c2 [Ad]2 | A2 GB AG | ^F2 GB c2 | c2 z2 z2 | f2 g2 g2 | g z z4 | AB dc BA | B2 d4 | %123
 c2 dc ef | Bc c4 | =B2 B2 B2 | A2 A4 | A2 A2 A2 | G2 G2 E2 | D^C D2 AG | G2 ^F4 | ^c2 c2 [Ad]2 | %132
 A2 GB AG | ^F2 GB c2 | c2 z2 z2 | f2 g2 g2 | g z z4 | AB dc BA | B2 d4 | c2 dc ef | Bc c4 | %141
 =B2 B2 B2 | A2 A4 | A2 A2 A2 | G2 G2 E2 | D^C D2 AG | G2 ^F4 |[M:3/4] x6 | F2 G2 A2 | G2 FE F2- | %150
 FE D^C DE | D^C =B,C A,2 | D2 C=B, C[I:staff +1]A, | %153
[I:staff -1] _A,2[I:staff +1] B,/4=A,/4B,/4A,/4B,/4A,/4B,/4A,/4 =B,2 | E,2 A,2 _A,2 | %155
 A,2[I:staff -1] z2 z2 | F2 G2 A2 | G2 FE F2- | FE D^C DE | D^C =B,C A,2 | %160
 D2 C=B, C[I:staff +1]A, |[I:staff -1] _A,2[I:staff +1] B,/4=A,/4B,/4A,/4B,/4A,/4B,/4A,/4 =B,2 | %162
 E,2 A,2 _A,2 | A,6 |[I:staff -1] F6- | F6 | D6 | C4- CB, |[I:staff +1] A,C DG, A,C | %169
 F,A, B,E, F,A, |[I:staff -1] C2 B,A, G,A, |[I:staff +1] F,4[I:staff -1] z2 | %172
 z2[I:staff +1] F,E, F,2 |[I:staff -1] z2[I:staff +1] G,F, G,2 | %174
[I:staff -1] z2[I:staff +1] A,2 D2 | ^CD E2 A,2 |[I:staff -1] A2 c/4B/4c/4B/4c/4B/4c/4B/4 c2- | %177
 cB AG A2 | F2 G2 E2 | D6 | F6- | F6 | D6 | C4- CB, |[I:staff +1] A,C DG, A,C | F,A, B,E, F,A, | %186
[I:staff -1] C2 B,A, G,A, |[I:staff +1] F,4[I:staff -1] z2 | z2[I:staff +1] F,E, F,2 | %189
[I:staff -1] z2[I:staff +1] G,F, G,2 |[I:staff -1] z2[I:staff +1] A,2 D2 | ^CD E2 A,2 | %192
[I:staff -1] A2 c/4B/4c/4B/4c/4B/4c/4B/4 c2- | cB AG A2 | F2 G2 E2 | D6 | F2 F4 | G4- GF | E2 E4 | %199
 F4 z2 | F2 F2 EF | GA BG AF | E6 | D4 z2 | F2 F4- | F6- | F2 E4- | E6- | E2 D4- | D2 ^C4 | %210
 D4 ^C2 | D6 | F2 F4 | G4- GF | E2 E4 | F4 z2 | F2 F2 EF | GA BG AF | E6 | D4 z2 | F2 F4- | F6- | %222
 F2 E4- | E6- | E2 D4- | D2 ^C4 | D4 ^C2 | D6 | x6 | x6 | x6 | x6 | E2 E4 | A2 A4- | A2 ^c2 d2 | %235
 ^c2 z2 z2 | F2 F4 | G4- GF | E2 E4 | F4 z2 | F2 F3 E/F/ | GA BG AF | E6 | D4 z2 | F2 F4- | F6- | %246
 F2 E4- | E6- | E2 D4- | D2 ^C4 | D4 ^C2 | D6 | x6 | x6 | x6 | x6 | E2 E4 | A2 A4- | A2 ^c2 d2 | %259
 ^c2 z2 z2 | F2 F4 | G4- GF | E2 E4 | F4 z2 | F2 F3 E/F/ | GA BG AF | E6 | D4 z2 | F2 F4- | F6- | %270
 F2 E4- | E6- | E2 D4- | D2 ^C4 | D4 ^C2 | D6 |[M:2/2] x8 | x8 | %278
 F3/2E/4D/4 D/4^C/4D/4C/4D/4C/4D/4C/4 A2 G2- | G>^C[I:staff +1] D>[I:staff -1]^c d2 c3/2d/4e/4 | %280
 A2 z z/ D/ D2 ^C2 | D>D G>D E2 F2- | F>E A>E ^F2 G2- | G>^F =B>A _A2 =A2- | %284
 A>A _A3/2=A/4=B/4 E z z2 | z z/ E/ A>E F-F/4E/4D/4C/4[I:staff +1] =B,>[I:staff -1]D | %286
[I:staff +1] C>=B, C2- C>B, D>[I:staff -1]F | E2 =A2- A2 _A2 | %288
 z z/4 G/4F/4E/4 F>D- D-D/4D/4^C/4=B,/4 C2 | x8 | F3/2E/4D/4 D/4^C/4D/4C/4D/4C/4D/4C/4 A2 G2- | %291
 G>^C[I:staff +1] D>[I:staff -1]^c d2 c3/2d/4e/4 | A2 z z/ D/ D2 ^C2 | D>D G>D E2 F2- | %294
 F>E A>E ^F2 G2- | G>^F =B>A _A2 =A2- | A>A _A3/2=A/4=B/4 E z z2 | %297
 z z/ E/ A>E F-F/4E/4D/4C/4[I:staff +1] =B,>[I:staff -1]D | %298
[I:staff +1] C>=B, C2- C>B, D>[I:staff -1]F | E2 =A2- A2 _A2 | %300
 z z/4 G/4F/4E/4 F>D- D-D/4D/4^C/4=B,/4 C2 | x8 | x8 | D2 E2- EE/4F/4E/4D/4 ^C3/2=B,/4C/4 | %304
 D>A D>A G-G/4A/4=B/4c/4 d>B | c4- c3/2d/4e/4 c>c | =B4- B3/2c/4d/4 c>B | %307
 A2 z2 z z/ a/ _a3/2=a/4=b/4 | e2- e-e/4d/4e/4f/4 =B2- B-B/4B/4^c/4d/4 | e2- e-e/4d/4^c/4d/4 G4- | %310
 G>E A>E F-F/4E/4D/4C/4 =B,>D | ^C4 D4 | E2 z2 z4 | z z/ d/ g>d e-e/4d/4^c/4=B/4 A>=c | %314
 B>G D>F E-E/4F/4G/4A/4 B>G | A2 d2- d2 ^c2 | z z/4 c/4B/4A/4 B>G- G-G/4G/4^F/4E/4 F2 | x8 | x8 | %319
 D2 E2- EE/4F/4E/4D/4 ^C3/2=B,/4C/4 | D>A D>A G-G/4A/4=B/4c/4 d>B | c4- c3/2d/4e/4 c>c | %322
 =B4- B3/2c/4d/4 c>B | A2 z2 z z/ a/ _a3/2=a/4=b/4 | e2- e-e/4d/4e/4f/4 =B2- B-B/4B/4^c/4d/4 | %325
 e2- e-e/4d/4^c/4d/4 G4- | G>E A>E F-F/4E/4D/4C/4 =B,>D | ^C4 D4 | E2 z2 z4 | %329
 z z/ d/ g>d e-e/4d/4^c/4=B/4 A>=c | B>G D>F E-E/4F/4G/4A/4 B>G | A2 d2- d2 ^c2 | %332
 z z/4 c/4B/4A/4 B>G- G-G/4G/4^F/4E/4 !fermata!F2 |] %333
V:4
 x/ | z4 z/ B3/2 A2- | A2 A/B/G/ z/ !arpeggio!B3/2 z/ z2 | x8 | x8 | x8 | z2 z/ c3/2 z/ A/B z2 | %7
 x8 | x8 | x8 | x8 | x8 | x8 | z4 z/ B3/2 A2- | A2 A/B/G/ z/ !arpeggio!B3/2 z/ z2 | x8 | x8 | x8 | %18
 z2 z/ c3/2 z/ A/B z2 | x8 | x8 | x8 | x8 | x8 | x8 | z4 z B- B2 | x8 | x8 | x8 | x8 | x8 | x8 | %32
 x8 | x8 | x8 | x8 | x8 | z4 z B- B2 | x8 | x8 | x8 | x8 | x8 | x8 | x8 | x8 | x8 | x8 | x8 | %49
[M:6/4] x12 | z8 z GE^C | D6 D2 D4 | x12 | z8 d z z2 | x12 | x12 | x12 | x12 | x12 | x12 | %60
 z8 z GE^C | D6 D2 D4 | x12 | z8 d z z2 | x12 | x12 | x12 | x12 | x12 | x12 | x12 | x12 | x12 | %73
 z4 !arpeggio!^F3 z z4 | z4 G4 ^F4 | x12 | x12 | x12 | x12 | x12 | x12 | z4 !arpeggio!F3 z z4 | %82
 z4 d4 ^c4 | x12 | x12 | x12 | x12 | z4 !arpeggio!^F3 z z4 | z4 G4 ^F4 | x12 | x12 | x12 | x12 | %93
 x12 | x12 | z4 !arpeggio!F3 z z4 | z4 d4 ^c4 | x12 |[M:3/4] x6 | x6 | x6 | x6 | x6 | x6 | x6 | %105
 x6 | x6 | x6 | x6 | x6 | x6 | x6 | x6 | x6 | x6 | A2 G2 F2 | E2 EG FE | E2 EG ^FG | %118
 A2[I:staff +1] [_E,^F,]4 |[I:staff -1] d2 d2 d2 | dc _ed cB | z2[I:staff +1] ^F,2[I:staff -1] z2 | %122
 z2 B4 | x6 | x6 | x6 | x6 | x6 | x6 | z4[I:staff +1] ^C2 |[I:staff -1] ED D4 | A2 G2 F2 | %132
 E2 EG FE | E2 EG ^FG | A2[I:staff +1] [_E,^F,]4 |[I:staff -1] d2 d2 d2 | dc _ed cB | %137
 z2[I:staff +1] ^F,2[I:staff -1] z2 | z2 B4 | x6 | x6 | x6 | x6 | x6 | x6 | z4[I:staff +1] ^C2 | %146
[I:staff -1] ED D4 |[M:3/4] x6 | x6 | x6 | x6 | x6 | x6 | x6 | x6 | x6 | x6 | x6 | x6 | x6 | x6 | %161
 x6 | x6 | x6 | x6 | x6 | x6 | x6 | x6 | x6 | x6 | x6 | x6 | x6 | x6 | x6 | x6 | x6 | x6 | x6 | %180
 x6 | x6 | x6 | x6 | x6 | x6 | x6 | x6 | x6 | x6 | x6 | x6 | x6 | x6 | x6 | x6 | x6 | x6 | x6 | %199
 x6 | x6 | x6 | x6 | x6 | x6 | x6 | x6 | x6 | x6 | x6 | x6 | x6 | x6 | x6 | x6 | x6 | x6 | x6 | %218
 x6 | x6 | x6 | x6 | x6 | x6 | x6 | x6 | x6 | x6 | x6 | x6 | x6 | x6 | x6 | x6 | x6 | x6 | x6 | %237
 x6 | x6 | x6 | x6 | x6 | x6 | x6 | x6 | x6 | x6 | x6 | x6 | x6 | x6 | x6 | x6 | x6 | x6 | x6 | %256
 x6 | x6 | x6 | x6 | x6 | x6 | x6 | x6 | x6 | x6 | x6 | x6 | x6 | x6 | x6 | x6 | x6 | x6 | x6 | %275
 x6 |[M:2/2] x8 | x8 | x8 | x8 | x8 | x8 | x8 | x8 | x8 | x8 | x8 | x8 | x8 | x8 | x8 | x8 | x8 | %293
 x8 | x8 | x8 | x8 | x8 | x8 | x8 | x8 | x8 | x8 | x8 | x8 | x8 | x8 | x8 | x8 | x8 | x8 | x8 | %312
 x8 | x8 | x8 | x8 | x8 | x8 | x8 | x8 | x8 | x8 | x8 | x8 | x8 | x8 | x8 | x8 | x8 | x8 | x8 | %331
 x8 | x8 |] %333
V:5
 x/ | x8 | x8 | x8 | x8 | x8 | z2 z A z4 | x8 | x8 | x8 | x8 | x8 | x8 | x8 | x8 | x8 | x8 | x8 | %18
 z2 z A z4 | x8 | x8 | x8 | x8 | x8 | x8 | x8 | x8 | x8 | x8 | x8 | x8 | x8 | x8 | x8 | x8 | x8 | %36
 x8 | x8 | x8 | x8 | x8 | x8 | x8 | x8 | x8 | x8 | x8 | x8 | x8 |[M:6/4] x12 | x12 | x12 | x12 | %53
 x12 | x12 | x12 | x12 | x12 | x12 | x12 | x12 | x12 | x12 | x12 | x12 | x12 | x12 | x12 | x12 | %69
 x12 | x12 | x12 | x12 | x12 | x12 | x12 | x12 | x12 | x12 | x12 | x12 | x12 | x12 | x12 | x12 | %85
 x12 | x12 | x12 | x12 | x12 | x12 | x12 | x12 | x12 | x12 | x12 | x12 | x12 |[M:3/4] x6 | x6 | %100
 x6 | x6 | x6 | x6 | x6 | x6 | x6 | x6 | x6 | x6 | x6 | x6 | x6 | x6 | x6 | x6 | x6 | x6 | x6 | %119
 x6 | x6 | x6 | x6 | x6 | x6 | x6 | x6 | x6 | x6 | x6 | x6 | x6 | x6 | x6 | x6 | x6 | x6 | x6 | %138
 x6 | x6 | x6 | x6 | x6 | x6 | x6 | x6 | x6 |[M:3/4] x6 | x6 | x6 | x6 | x6 | x6 | x6 | x6 | x6 | %156
 x6 | x6 | x6 | x6 | x6 | x6 | x6 | x6 | x6 | x6 | x6 | x6 | x6 | x6 | x6 | x6 | x6 | x6 | x6 | %175
 x6 | x6 | x6 | x6 | x6 | x6 | x6 | x6 | x6 | x6 | x6 | x6 | x6 | x6 | x6 | x6 | x6 | x6 | x6 | %194
 x6 | x6 | x6 | x6 | x6 | x6 | x6 | x6 | x6 | x6 | x6 | x6 | x6 | x6 | x6 | x6 | x6 | x6 | x6 | %213
 x6 | x6 | x6 | x6 | x6 | x6 | x6 | x6 | x6 | x6 | x6 | x6 | x6 | x6 | x6 | x6 | x6 | x6 | x6 | %232
 x6 | x6 | x6 | x6 | x6 | x6 | x6 | x6 | x6 | x6 | x6 | x6 | x6 | x6 | x6 | x6 | x6 | x6 | x6 | %251
 x6 | x6 | x6 | x6 | x6 | x6 | x6 | x6 | x6 | x6 | x6 | x6 | x6 | x6 | x6 | x6 | x6 | x6 | x6 | %270
 x6 | x6 | x6 | x6 | x6 | x6 |[M:2/2] x8 | x8 | x8 | x8 | x8 | x8 | x8 | x8 | x8 | x8 | x8 | x8 | %288
 x8 | x8 | x8 | x8 | x8 | x8 | x8 | x8 | x8 | x8 | x8 | x8 | x8 | x8 | x8 | x8 | x8 | x8 | x8 | %307
 x8 | x8 | x8 | x8 | x8 | x8 | x8 | x8 | x8 | x8 | x8 | x8 | x8 | x8 | x8 | x8 | x8 | x8 | x8 | %326
 x8 | x8 | x8 | x8 | x8 | x8 | x8 |] %333
V:6
 x/ | x8 | x8 | x8 | x8 | x8 | x8 | x8 | x8 | x8 | x8 | z2 D,2 A,,4- | A,,4- A,,3 z | x8 | x8 | %15
 x8 | x8 | x8 | x8 | x8 | x8 | x8 | x8 | ^C,2 D,2 A,,4- | A,,4- A,,3 x | A,4- A,2- A,/B,/A,/G,/ | %26
 F,2 F,E, D,4 | x8 | _E,2 E,/C,/D,/E,/ D,4- | D,3 D, G,2 z2 | C,D,E,C, F,2 z2 | x8 | F,3 E, D,4 | %33
 x8 | x8 | z4 F,,>G,, A,,2 | D,,6- D,,3/2 z/ | A,4- A,2- A,/B,/A,/G,/ | F,2 F,E, D,4 | x8 | %40
 _E,2 E,/C,/D,/E,/ D,4- | D,3 D, G,2 z2 | C,D,E,C, F,2 z2 | x8 | F,3 E, D,4 | x8 | x8 | %47
 z4 F,,>G,, A,,2 | D,,6- !fermata!D,,3/2 z/ |[M:6/4] x12 | D,12- | D,4 z8 | A,6 A,2 D^C z2 | x12 | %54
 x12 | A,,6 F,,2 A,,2 F,,2 | B,,4 z2 D,B,, B,3 z | x12 | D,6 C,2 B,,4 | A,,6- A,,4 z z | D,12- | %61
 D,4 z8 | A,6 A,2 D^C z2 | x12 | x12 | A,,6 F,,2 A,,2 F,,2 | B,,4 z2 D,B,, B,3 z | x12 | %68
 D,6 C,2 B,,4 | A,,6- A,,4 z x | A,,6 B,,2 z E,3 | D,3 E, z4 C,3 C, | B,,4 z8 | x12 | x12 | x12 | %76
 C,4 z8 | x12 | ^C,4 D,4 B,,4 | A,,3 z z4 z2 ^F,2 | G,3 z z8 | x12 | x12 | D,6- D,4 z z | %84
 A,,6 B,,2 z E,3 | D,3 E, z4 C,3 C, | B,,4 z8 | x12 | x12 | x12 | C,4 z8 | x12 | ^C,4 D,4 B,,4 | %93
 A,,3 z z4 z2 ^F,2 | G,3 z z8 | x12 | x12 | D,6- D,4 x2 |[M:3/4] x6 | D,2 D,2 D,2 | D,3 F, E,D, | %101
 ^C,2 C,2 C,2 | C,3 _E, D,C, | B,,2 B,,2 B,,2 | A,,2 A,,2 A,,2 | A,,2 G,,2 B,,2 | A,,2 A,,4 | %107
 D,2 D,2 D,2 | D,3 F, E,D, | ^C,2 C,2 C,2 | C,3 _E, D,C, | B,,2 B,,2 B,,2 | A,,2 A,,2 A,,2 | %113
 A,,2 G,,2 B,,2 | A,,2 A,,4 | x6 | x6 | x6 | x6 | x6 | x6 | x6 | x6 | B,,2 B,2 B,2 | %124
 A,2- A,C B,A, | _A,2 A,2 A,2 | G,3 _B, A,G, | F,2 F,2 F,2 | F,2 E,D, ^C,2 | D,E, F,D, A,2 | %130
 D,2 D,4 | x6 | x6 | x6 | x6 | x6 | x6 | x6 | x6 | B,,2 B,2 B,2 | A,2- A,C B,A, | _A,2 A,2 A,2 | %142
 G,3 _B, A,G, | F,2 F,2 F,2 | F,2 E,D, ^C,2 | D,E, F,D, A,2 | D,2 !fermata!D,4 |[M:3/4] x6 | x6 | %149
 x6 | x6 | x6 | x6 | x6 | x6 | x6 | x6 | x6 | x6 | x6 | x6 | x6 | x6 | x6 | x6 | x6 | x6 | x6 | %168
 x6 | x6 | x6 | x6 | x6 | x6 | x6 | x6 | x6 | x6 | x6 | D,,6 | x6 | x6 | x6 | x6 | x6 | x6 | x6 | %187
 x6 | x6 | x6 | x6 | x6 | x6 | x6 | x6 | !fermata!D,,6 | x6 | x6 | x6 | x6 | x6 | x6 | x6 | x6 | %204
 x6 | x6 | x6 | x6 | x6 | x6 | x6 | x6 | x6 | x6 | x6 | x6 | x6 | x6 | x6 | x6 | x6 | x6 | x6 | %223
 x6 | x6 | x6 | x6 | x6 | x6 | G,2 A,/4G,/4A,/4G,/4A,/4G,/4A,/4G,/4 A,/4G,/4A,/4G,/4^F,/G,/ | A,6 | %231
 G,6 | x6 | x6 | x6 | x6 | x6 | x6 | x6 | x6 | x6 | x6 | x6 | x6 | x6 | x6 | x6 | x6 | x6 | x6 | %250
 x6 | x6 | x6 | G,2 A,/4G,/4A,/4G,/4A,/4G,/4A,/4G,/4 A,/4G,/4A,/4G,/4^F,/G,/ | A,6 | G,6 | x6 | %257
 x6 | x6 | x6 | x6 | x6 | x6 | x6 | x6 | x6 | x6 | x6 | x6 | x6 | x6 | x6 | x6 | x6 | x6 | x6 | %276
[M:2/2] x8 | x8 | x8 | x8 | x8 | x8 | x8 | x8 | x8 | x8 | x8 | x8 | x8 | x8 | x8 | x8 | x8 | x8 | %294
 x8 | x8 | x8 | x8 | x8 | x8 | x8 | x8 | x8 | x8 | x8 | x8 | x8 | x8 | x8 | x8 | x8 | x8 | x8 | %313
 x8 | x8 | x8 | D,8 | x8 | x8 | x8 | x8 | x8 | x8 | x8 | x8 | x8 | x8 | x8 | x8 | x8 | x8 | x8 | %332
 !fermata!D,8 |] %333
V:7
 x/ | x8 | x8 | x8 | x8 | x8 | x8 | x8 | x8 | x8 | x8 | x8 | x8 | x8 | x8 | x8 | x8 | x8 | x8 | %19
 x8 | x8 | x8 | x8 | x8 | x8 | x8 | x8 | x8 | x8 | x8 | x8 | x8 | x8 | x8 | x8 | x8 | x8 | x8 | %38
 x8 | x8 | x8 | x8 | x8 | x8 | x8 | x8 | x8 | x8 | x8 |[M:6/4] x12 | x12 | x12 | x12 | x12 | x12 | %55
 x12 | x12 | x12 | x12 | x12 | x12 | x12 | x12 | x12 | x12 | x12 | x12 | x12 | x12 | x12 | %70
 z8 ^C,2 A,,2 | x12 | x12 | x12 | x12 | x12 | x12 | x12 | x12 | x12 | x12 | x12 | x12 | x12 | %84
 z8 ^C,2 A,,2 | x12 | x12 | x12 | x12 | x12 | x12 | x12 | x12 | x12 | x12 | x12 | x12 | x12 | %98
[M:3/4] x6 | x6 | x6 | x6 | x6 | x6 | x6 | x6 | x6 | x6 | x6 | x6 | x6 | x6 | x6 | x6 | x6 | x6 | %116
 x6 | x6 | x6 | x6 | x6 | x6 | x6 | x6 | x6 | x6 | x6 | x6 | x6 | z4 A,2 | x6 | x6 | x6 | x6 | x6 | %135
 x6 | x6 | x6 | x6 | x6 | x6 | x6 | x6 | x6 | x6 | z4 A,2 | x6 |[M:3/4] x6 | x6 | x6 | x6 | x6 | %152
 x6 | x6 | x6 | x6 | x6 | x6 | x6 | x6 | x6 | x6 | x6 | x6 | x6 | x6 | x6 | x6 | x6 | x6 | x6 | %171
 x6 | x6 | x6 | x6 | x6 | x6 | x6 | x6 | x6 | x6 | x6 | x6 | x6 | x6 | x6 | x6 | x6 | x6 | x6 | %190
 x6 | x6 | x6 | x6 | x6 | x6 | x6 | x6 | x6 | x6 | x6 | x6 | x6 | x6 | x6 | x6 | x6 | x6 | x6 | %209
 x6 | x6 | x6 | x6 | x6 | x6 | x6 | x6 | x6 | x6 | x6 | x6 | x6 | x6 | x6 | x6 | x6 | x6 | x6 | %228
 x6 | x6 | x6 | x6 | x6 | x6 | x6 | x6 | x6 | x6 | x6 | x6 | x6 | x6 | x6 | x6 | x6 | x6 | x6 | %247
 x6 | x6 | x6 | x6 | x6 | x6 | x6 | x6 | x6 | x6 | x6 | x6 | x6 | x6 | x6 | x6 | x6 | x6 | x6 | %266
 x6 | x6 | x6 | x6 | x6 | x6 | x6 | x6 | x6 | x6 |[M:2/2] x8 | x8 | x8 | x8 | x8 | x8 | x8 | x8 | %284
 x8 | x8 | x8 | x8 | x8 | x8 | x8 | x8 | x8 | x8 | x8 | x8 | x8 | x8 | x8 | x8 | x8 | x8 | x8 | %303
 x8 | x8 | x8 | x8 | x8 | x8 | x8 | x8 | x8 | x8 | x8 | x8 | x8 | x8 | x8 | x8 | x8 | x8 | x8 | %322
 x8 | x8 | x8 | x8 | x8 | x8 | x8 | x8 | x8 | x8 | x8 |] %333

